X:212
T:Up And Down Again
N:Brose and Butter (Scottish)
Z:Jack Campin, http://www.campin.me.uk/
F:Jack Campin's Nine-Note Tunebook
% last edit 03-02-2013
S:http://www.thesession.org/tunes/display/4445
M:9/8
L:1/8
Q:3/8=112
K:EMin
GAB EEE EEE|GAB EEE AFD|GAB EEE EEE|FED AdB AFD:|
GAB BdB BdB|GGG BdB AFD|GAB BdB BBB|cBA AdB AFD:|

